!!!!SEGMENT: pl-wumfc--n53446--001-015_moniuszko-stanislaw--hrabina-no-12b-taniec-satyrow.krn
!!!cenid: 18xx:4102
!!!COM: Moniuszko, Stanisław
!!!COM-rismID: pe30008351
!!!CDT: 1819/05/05-1872/06/04
!!!CNT: Polish
!!!OPR: Hrabina
!!!OTL: No. 12b. Taniec Satyrów
!!!OMV: 015
!!!PDT:
!!!AGN:
!!!SMS-siglum: PL-Wumfc
!!!SMS-shelfmark: N53446
!!!SMS-shelfwork: 001-015 M
!!!SMS-variant:
!!!SMS-altvar:
!!!NIFC-rismSourceID: 1001165649
!!!NIFC-rismChildID: 1001165649
!!!NIFC-islandoraID: pl-wumfc:6884
!!!URL-pdf-islandora: https://repozytorium.nifc.pl/islandora/object/pl-wumfc%3A6884/datastream/PDF/view
!!!URL-scan: https://polish.musicsources.pl/pl/lokalizacje/galeria/druki-muzyczne/12579-hrabina @EN{Scan on Polish Music Sources Website} @PL{Skany w portalu Dziedzictwo Muzyki Polskiej w otwartym dostępie}
!!!ONB-nifc:
!!!AIN: 1 piano
!!!key: E-
**kern	**kern	**dynam
*part1	*part1	*part1
*staff2	*staff1	*
*I"[Piano.]	*I"[Piano.]	*
*>[A,A,B,C,C1,C,C2,D,D1,D,D2,E]	*>[A,A,B,C,C1,C,C2,D,D1,D,D2,E]	*
*>A	*>A	*
*Ipiano	*Ipiano	*
*ICklav	*ICklav	*
*clefF4	*clefG2	*
*k[b-e-a-]	*k[b-e-a-]	*
*E-:	*E-:	*
*M2/4	*M2/4	*
=1	=1	=1
!!LO:TX:B:a:t=Molto moderato.
8E-L 8EE-\	16b-LL 16g\	ff
.	16gg\J	.
8e-J 8B- 8G\	8ggJ 8b-\	.
8BB-L 8BBB-\	8.ggL 8.b-\	.
8dJ 8B- 8A-\	.	.
.	16ffJk 16a-\	.
=2	=2	=2
8E- 8EE-/	8ffL 8a-\	.
16e-LL 16B- 16G\	8ee-J 8g\	.
16e-JJ 16B- 16G\	.	.
.	8qff/	.
8e-L 8B- 8G\	16ee-\LL	.
.	16dd\J	.
8e-J 8B- 8G\	8ee-\J	.
=3	=3	=3
8FL 8FF\	16ffLL 16dd 16b-\	.
.	16bb-\J	.
8fJ 8d 8B-\	8bb-J 8dd 8b-\	.
8FL 8FF\	8aanL 8ee- 8an\	.
8fJ 8e- 8c\	8ff\J	.
=4	=4	=4
8BB- 8BBB-/	8bb-L 8dd 8b-\	.
16dLL 16B- 16A-X\	16bb-\L	.
16dJJ 16B- 16A-\	16ccc\JJ	.
8dL 8B- 8A-\	16bb-\LL	.
.	16aa-X\	.
8dJ 8B- 8A-\	16ff\	.
.	16dd\JJ	.
!!LO:LB:g=original
=5	=5	=5
8E-L 8EE-\	16b-LL 16g\	.
.	16gg\J	.
8e-J 8B- 8G\	8ggJ 8b-\	.
8BB-L 8BBB-\	8.ggL 8.b-\	.
8dJ 8B- 8A-\	.	.
.	16ffJk 16a-\	.
=6	=6	=6
8E- 8EE-/	8ffL 8a-\	.
16e-LL 16B- 16G\	8ee-J 8g\	.
16e-JJ 16B- 16G\	.	.
.	8qff/	.
8e-L 8B- 8G\	16ee-\LL	.
.	16dd\J	.
8e-J 8B- 8G\	8ee-\J	.
=7	=7	=7
8A-L 8AA-/	16cc\LL	.
.	16ff\	.
8FJ 8FF/	16aa-\	.
.	16ccc\JJ	.
8B-L 8BB-\	8bb-\L	.
8dJ 8B- 8A-\	8ddJ 8a- 8f\	.
=8	=8	=8
8e-L 8B- 8E-\	8ee-L 8g\	.
.	8qff/	.
8c 8A-\	16ee-L 16a-\	.
.	16dd\JJ	.
8B-J 8E-\	8ee- 8g\	.
8r	8r	.
!!LO:LB:g=original
=9||	=9||	=9||
8G-XL 8GG-X\	16dd-XLL 16b-\	p
.	16bb-\J	.
8g-XJ 8d-X 8B-\	8bb-J 8dd-\	.
8D-XL 8DD-X\	8.bb-L 8.dd-\	.
8fJ 8d- 8c-X\	.	.
.	16aa-Jk 16cc-X\	.
=10	=10	=10
8G-XL 8GG-X\	8aa-L 8cc-X\	.
16g-XL 16d-X 16B-\	8gg-XJ 8b-\	.
16g-JJ 16d- 16B-\	.	.
.	(8qaa-/	.
8g-L 8d- 8B-\	16gg-\LL)	.
.	16ff\J	.
8g-J 8d- 8B-\	8gg-\J	.
=11	=11	=11
8FL 8FF\	8ffL 8ddn\	ff
8fJ 8dn 8B-\	16dddn\L	.
.	16dddJJ 16ff\	.
8FL 8FF\	8.dddL 8.ff\	.
8fJ 8e- 8An\	.	.
.	16cccJk 16ee-\	.
=12	=12	=12
8BB- 8BBB-/	8cccL 8ee-\	.
16fLL 16d 16B-\	8bb-\J	.
16fJJ 16d 16B-\	.	.
.	8qccc/	.
8fL 8d 8B-\	16bb-\LL	.
.	16aan\J	.
8fJ 8d 8B-\	8bb-\J	.
!!LO:LB:g=original
=13	=13	=13
8G-XL 8GG-X\	16dd-XLL 16b-\	p
.	16bb-\J	.
8g-XJ 8d-X 8B-\	8bb-J 8dd-\	.
8D-XL 8DD-X\	8.bb-L 8.dd-\	.
8fJ 8d- 8c-X\	.	.
.	16aa-XJk 16cc-X\	.
=14	=14	=14
8G-XL 8GG-X\	8aa-L 8cc-X\	.
16g-XL 16d-X 16B-\	8gg-XJ 8b-\	.
16g-JJ 16d- 16B-\	.	.
.	(8qaa-/	.
8g-L 8d- 8B-\	16gg-\LL)	.
.	16ff\J	.
8g-J 8d- 8B-\	8gg-\J	.
=15	=15	=15
8FL 8FF\	16ffLL 16ddn\	ff
.	16dddn\J	.
8fJ 8dn 8B-\	8dddJ 8ff\	.
8FL 8FF\	8.dddL 8.ff\	.
8fJ 8e- 8An\	.	.
.	16cccJk 16ee-\	.
=16	=16	=16
8BB- 8BBB-/	8bb-L 8dd\	.
16dLL 16B- 16A-X 16F\	16ccc\L	.
16dJJ 16B- 16A- 16F\	16bb-\JJ	.
8dL 8B- 8A- 8F\	16aa-\LL	.
.	16ff\	.
8dJ 8B- 8A- 8F\	16dd\	.
.	16cc\JJ	.
!!LO:LB:g=original
=17	=17	=17
8E-L 8EE-\	16b-LL 16g\	.
.	16gg\J	.
8e-J 8B- 8G\	8ggJ 8b-\	.
8BB-L 8BBB-\	8.ggL 8.b-\	.
8dJ 8B- 8A-\	.	.
.	16ffJk 16a-\	.
=18	=18	=18
8E- 8EE-/	8ffL 8a-\	.
16e-LL 16B- 16G\	8ee-J 8g\	.
16e-JJ 16B- 16G\	.	.
.	8qff/	.
8e-L 8B- 8G\	16ee-\LL	.
.	16dd\J	.
8e-J 8B- 8G\	8ee-\J	.
=19	=19	=19
8FL 8FF\	16ffLL 16dd 16b-\	.
.	16bb-\J	.
8fJ 8d 8B-\	8bb-J 8dd 8b-\	.
8FL 8FF\	8aanL 8ee- 8an\	.
8fJ 8e- 8c\	8ff\J	.
=20	=20	=20
8BB- 8BBB-/	8bb-L 8dd 8b-\	.
16dLL 16B- 16A-X\	16bb-\L	.
16dJJ 16B- 16A-\	16ccc\JJ	.
8dL 8B- 8A-\	16bb-\LL	.
.	16aa-X\	.
8dJ 8B- 8A-\	16ff\	.
.	16dd\JJ	.
!!LO:PB:g=original
=21	=21	=21
8E-L 8EE-\	16b-LL 16g\	.
.	16gg\J	.
8e-J 8B- 8G\	8ggJ 8b-\	.
8BB-L 8BBB-\	8.ggL 8.b-\	.
8dJ 8B- 8A-\	.	.
.	16ffJk 16a-\	.
=22	=22	=22
8E- 8EE-/	8ffL 8a-\	.
16e-LL 16B- 16G\	8ee-J 8g\	.
16e-JJ 16B- 16G\	.	.
.	8qff/	.
8e-L 8B- 8G\	16ee-\LL	.
.	16dd\J	.
8e-J 8B- 8G\	8ee-\J	.
=23	=23	=23
8A-L 8AA-/	16cc\LL	.
.	16ee-\	.
8FJ 8FF/	16aa-\	.
.	16ccc\JJ	.
8B-L 8BB-\	8bb-\L	.
8dJ 8B- 8A-\	8ddJ 8a- 8f\	.
=24	=24	=24
8e-L 8B- 8E-\	8ee-L 8g\	.
.	8qff/	.
8c 8A-\	16ee-L 16a-\	.
.	16dd\JJ	.
8B-J 8E-\	8ee- 8g\	.
8r	8r	.
*kcancel	*kcancel	*
!!LO:LB:g=original
=25||	=25||	=25||
*k[b-e-]	*k[b-e-]	*
*^	*	*
2F/	8BB-\L	16dd\LL	p
.	.	16ee-\	.
.	8d 8B-\	16ff\	.
.	.	16gg\JJ	.
.	.	8qgg/	.
.	8d 8B-\	16ff\LL	.
.	.	16een\	.
.	8dJ 8B-\	16ff\	.
.	.	16gg\JJ	.
=26	=26	=26	=26
2F/	8BB-\L	16ff\LL	.
.	.	16ee-X\JJ	.
.	8e- 8A\	4cc\	.
.	8e- 8A\	.	.
.	8e-J 8A\	16dd\LL	.
.	.	16cc\JJ	.
=27	=27	=27	=27
.	.	8qcc/	.
2F/	8BB-\L	16b-\LL	.
.	.	16a\	.
.	8d 8B-\	16b-\	.
.	.	16dd\JJ	.
.	8d 8B-\	16ff\LL	.
.	.	16bb-\	.
.	8dJ 8B-\	16aa\	.
.	.	16gg\JJ	.
=28	=28	=28	=28
2F/	8BB-\L	16aa\LL	.
.	.	16gg\J	.
.	8e- 8A\	[8ff\J	.
.	8e- 8A\	16ff\LL]	.
.	.	16gg\	.
.	8e-J 8A\	16ee-\	.
.	.	16ff\JJ	.
!!LO:LB:g=original
=29	=29	=29	=29
2F/	8BB-\L	16dd\LL	.
.	.	16ee-\	.
.	8d 8B-\	16ff\	.
.	.	16gg\JJ	.
.	.	8qgg/	.
.	8d 8B-\	16ff\LL	.
.	.	16een\	.
.	8dJ 8B-\	16ff\	.
.	.	16gg\JJ	.
=30	=30	=30	=30
2F/	8BB-\L	16ff\LL	.
.	.	16ee-X\JJ	.
.	8e- 8A\	4cc\	.
.	8e- 8A\	.	.
.	8e-J 8A\	16dd\LL	.
.	.	16cc\JJ	.
*v	*v	*	*
=31	=31	=31
8BB-\L	16b-\LL	.
.	16dd\	.
8dJ 8B- 8F\	16ff\	.
.	16bb-\JJ	.
8FF\L	16aa\LL	.
.	16ff\	.
8e-J 8c 8F\	16gg\	.
.	16aa\JJ	.
=32	=32	=32
8BB-/	8bb-\	.
!	!LO:TUP:b:problem:klamra łukowa	!
8dL 8F\	24f/LL	f
.	24f/	.
.	24f/JJ	.
8e- 8F\	8f/L	.
8cJ 8E-\	8f/J	.
!!LO:LB:g=original
=33	=33	=33
*^	*	*
!	!	!LO:TX:t=P:problem:do piątej 16 w t. 39 dolna nuta jest zapisana w typie cue notes	!
2F/	8BB-\L	16ddLL 16b-\	mp
.	.	16ee- 16cc\	.
.	8d 8B-\	16ff 16dd\	.
.	.	16ggJJ 16ee-\	.
.	.	8qgg 8qee-/	.
.	8d 8B-\	16ffLL 16dd\	.
.	.	16een 16cc#X\	.
.	8dJ 8B-\	16ff 16dd\	.
.	.	16ggJJ 16b-\	.
=34	=34	=34	=34
2F/	8BB-\L	16ffLL 16a\	.
.	.	16ee-XJJ 16ccn\	.
.	8e- 8A\	4cc 4f/	.
.	8e- 8A\	.	.
.	8e-J 8A\	16ddLL 16f/	.
.	.	16ccJJ 16e-/	.
=35	=35	=35	=35
!	!	!LO:TX:t=P:problem:błędne wyświetlanie łuku	!
.	.	(8qcc/	.
2F/	8BB-\L	16b-LL) 16d/	.
.	.	16a 16f/	.
.	8d 8B-\	16b- 16d/	.
.	.	16ddJJ 16f/	.
.	8d 8B-\	16ffLL 16dd\	.
.	.	16ddd 16ff\	.
.	8dJ 8B-\	16ccc 16ee-\	.
.	.	16bb-JJ 16dd\	.
=36	=36	=36	=36
2F/	8BB-\L	16aaLL 16cc\	.
.	.	16ggJ 16b-\	.
.	8e- 8A\	[8ffJ 8a\	.
.	8e- 8A\	16ff]LL 16a\	.
.	.	16gg 16b-\	.
.	8e-J 8A\	16ee- 16g\	.
.	.	16ffJJ 16a\	.
!!LO:LB:g=original
=37	=37	=37	=37
2F/	8BB-\L	16ddLL 16b-\	.
.	.	16ee- 16cc\	.
.	8d 8B-\	16ff 16dd\	.
.	.	16ggJJ 16ee-\	.
.	.	8qgg 8qee-/	.
.	8d 8B-\	16ffLL 16dd\	.
.	.	16een 16cc#X\	.
.	8dJ 8B-\	16ff 16dd\	.
.	.	16ggJJ 16b-\	.
=38	=38	=38	=38
2F/	8BB-\L	16ffLL 16a\	.
.	.	16ee-XJJ 16ccn\	.
.	8e- 8A\	4cc 4f/	.
.	8e- 8A\	.	.
.	8e-J 8A\	16ddLL 16f/	.
.	.	16ccJJ 16e-/	.
*v	*v	*	*
=39	=39	=39
8BB-\L	16b-LL 16d\	.
.	16dd 16f\	.
8dJ 8B- 8F\	16ff 16b-\	.
.	16bb-JJ 16dd\	.
8FF\L	16aaLL 16cc\	.
.	16ff\	.
8e-J 8c 8F\	16gg 16ee- 16cc\	.
.	16aa\JJ	.
=40	=40	=40
8B- 8BB-\	8bb- 8dd 8b-\	.
!	!LO:TUP:a:problem:klamra łukowa	!
8a-XL 8f 8B-\	24b-\LL	.
.	24b-\	.
.	24b-\JJ	.
8g 8e- 8B-\	8b-\L	.
8fJ 8d 8B-\	8b-\J	.
!!LO:PB:g=original
=41:|!	=41:|!	=41:|!
*>B	*>B	*
*k[b-e-a-]	*k[b-e-a-]	*
8E-L 8EE-\	16b-LL 16g\	ff
.	16gg\J	.
8e-J 8B- 8G\	8ggJ 8b-\	.
8BB-L 8BBB-\	8.ggL 8.b-\	.
8dJ 8B- 8A-\	.	.
.	16ffJk 16a-\	.
=42	=42	=42
8E- 8EE-/	8ffL 8a-\	.
16e-LL 16B- 16G\	8ee-J 8g\	.
16e-JJ 16B- 16G\	.	.
.	8qff/	.
8e-L 8B- 8G\	16ee-\LL	.
.	16dd\J	.
8e-J 8B- 8G\	8ee-\J	.
=43	=43	=43
8FL 8FF\	16ffLL 16dd 16b-\	.
.	16bb-\J	.
8fJ 8d 8B-\	8bb-J 8dd 8b-\	.
8FL 8FF\	8aanL 8ee- 8an\	.
8fJ 8e- 8c\	8ff\J	.
=44	=44	=44
8BB- 8BBB-/	8bb-L 8dd 8b-\	.
16dLL 16B- 16A-X\	16bb-\L	.
16dJJ 16B- 16A-\	16ccc\JJ	.
8dL 8B- 8A-\	16bb-\LL	.
.	16aa-X\	.
8dJ 8B- 8A-\	16ff\	.
.	16dd\JJ	.
!!LO:LB:g=original
=45	=45	=45
8E-L 8EE-\	16b-LL 16g\	.
.	16gg\J	.
8e-J 8B- 8G\	8ggJ 8b-\	.
8BB-L 8BBB-\	8.ggL 8.b-\	.
8dJ 8B- 8A-\	.	.
.	16ffJk 16a-\	.
=46	=46	=46
8E- 8EE-/	8ffL 8a-\	.
16e-LL 16B- 16G\	8ee-J 8g\	.
16e-JJ 16B- 16G\	.	.
.	8qff/	.
8e-L 8B- 8G\	16ee-\LL	.
.	16dd\J	.
8e-J 8B- 8G\	8ee-\J	.
=47	=47	=47
8A-L 8AA-/	16cc\LL	.
.	16ff\	.
8FJ 8FF/	16aa-\	.
.	16ccc\JJ	.
8B-L 8BB-\	8bb-\L	.
8dJ 8B- 8A-\	8ddJ 8a- 8f\	.
=48	=48	=48
8e-L 8B- 8E-\	8ee-L 8g\	.
.	8qff/	.
8c 8A-\	16ee-L 16a-\	.
.	16dd\JJ	.
8B-J 8E-\	8ee- 8g\	.
8r	8r	.
!!LO:LB:g=original
=49!|:	=49!|:	=49!|:
*>C	*>C	*
8C\L	4gg\	p
8c 8G 8E- 8C\	.	.
8C\	16ff\LL	.
.	16een\	.
8cJ 8A- 8F 8C\	16ff\	.
.	16aa-\JJ	.
=50	=50	=50
8C\L	8gg\L	.
8c 8G 8E- 8C\	8ee-X\J	.
8C\	16dd\LL	.
.	16cc\	.
8GJ 8F 8C\	16dd\	.
.	16ee-\JJ	.
=51	=51	=51
8C\L	8cc\L	.
8c 8G 8E- 8C\	8cc\J	.
8C\	16bn\LL	.
.	16cc\	.
8GJ 8F 8C\	16dd\	.
.	16b\JJ	.
=52	=52	=52
8C\L	8.ccL 8.e-/	.
8c 8G\	.	.
.	16g/Jk	.
8c 8E-\	16cc\LL	.
.	16dd\	.
8cJ 8G\	16ee-\	.
.	16ff\JJ	.
=53	=53	=53
8C\L	4gg\	.
8c 8G 8En 8C\	.	.
.	8qgg/	.
8C\	16ff\LL	.
.	16een\	.
8cJ 8An 8F 8C\	16ff\	.
.	16aan\JJ	.
!!LO:LB:g=original
=54	=54	=54
8C\L	8gg\L	.
8c 8G 8En 8C\	8een\J	.
.	8qee/	.
8C\	16dd\LL	.
.	16cc\	.
8BnJ 8G 8F 8C\	16dd\	.
.	16ee\JJ	.
=55	=55	=55
8cL 8G 8En 8C\	8cc\L	.
8An 8E 8C 8AAn\	16cc\L	.
.	16bn\JJ	.
8c 8F#X 8D\	16an\LL	.
.	16cc\	.
8cJ 8F# 8D\	16b\	.
.	16a\JJ	.
=56	=56	=56
*>C1	*>C1	*
8G 8GG/	8g 8Bn/	.
!LO:TUP:a:problem:klamra łukowa	!LO:TUP:b:problem:klamra łukowa	!
24G\LL	24g/LL	.
24G\	24g/	.
24G\JJ	24g/JJ	.
8G\L	8g/L	.
8G\J	8g/J	.
=57:|!	=57:|!	=57:|!
*>C2	*>C2	*
8G 8GG/	8g 8Bn/	.
!LO:TUP:a:problem:klamra łukowa	!LO:TUP:b:problem:klamra łukowa	!
24G\LL	24g/LL	.
24G\	24g/	.
24G\JJ	24g/JJ	.
8G\L	8g/L	.
8G#X\J	8g#X/J	.
!!LO:LB:g=original
=58!|:	=58!|:	=58!|:
*>D	*>D	*
8D\L	16anLL 16f\	p
.	16ff\J	.
8dJ 8An\	8ffJ 8a\	.
8AAn\L	8.ffL 8.a\	.
8c#XJ 8A\	.	.
.	16eenJk 16g\	.
=59	=59	=59
8DL 8DD\	8eenL 8g/	.
16dL 16An\	8ddJ 8f/	.
16dJ 16A\	.	.
.	8qee/	.
8d 8A\	16dd 16f/LL	.
.	16cc#X/J	.
8dJ 8A\	8ddJ 8f/	.
=60	=60	=60
8CL 8CC\	16ccLL 16an\	ff
.	16aan\J	.
8fJ 8c 8An\	8aaJ 8cc\	.
8C\L	8.aaL 8.cc\	.
8enJ 8c 8B-\	.	.
.	16ggJk 16b-\	.
=61	=61	=61
8F 8FF/	8ggL 8b-\	.
16fLL 16c 16An\	8ffJ 8an\	.
16fJJ 16c 16A\	.	.
.	8qgg/	.
8fL 8c 8A\	16ff\LL	.
.	16een\J	.
8fJ 8c 8A\	8ff\J	.
!!LO:PB:g=original
=62	=62	=62
8D\L	16anLL 16f\	p
.	16ff\J	.
8dJ 8An\	8ffJ 8a\	.
8AAn\L	8.ffL 8.a\	.
8c#XJ 8A\	.	.
.	16eenJk 16g\	.
=63	=63	=63
8DL 8DD\	8eenL 8g/	.
16dL 16An\	8ddJ 8f/	.
16dJ 16A\	.	.
!	!LO:TX:t=P:problem:błędne wyświetlanie łuku	!
.	(8qee/	.
8d 8A\	16ddLL) 16f/	.
.	16cc#X/J	.
8dJ 8A\	8ddJ 8f/	.
=64	=64	=64
8CL 8CC\	16ccLL 16an\	ff
.	16aan\J	.
8fJ 8c 8An\	8aaJ 8cc\	.
8C\L	8.aaL 8.cc\	.
8enJ 8c 8B-\	.	.
.	16ggJk 16b-\	.
=65	=65	=65
8cL 8An 8F\	8ggL 8an\	.
8d 8A 8D\	16ffL 16dd\	.
.	16eenJJ 16cc\	.
8GJ 8GG\	16ddLL 16bn\	.
.	16ee 16cc\	.
8r	16ff 16dd\	.
.	16ff#XJJ 16dd#X\	.
!!LO:LB:g=original
=66	=66	=66
8C\L	4gg 4een\	.
8c 8G 8En 8C\	.	.
.	(8qgg/	.
8C\	16ff\LL)	.
.	16een\	.
8cJ 8An 8F 8C\	16ff\	.
.	16aan\JJ	.
=67	=67	=67
8C\L	8gg\L	.
8c 8G 8En 8C\	8een\J	.
.	(8qee/	.
8C\	16dd\LL)	.
.	16cc\	.
8BnJ 8G 8F 8C\	16dd\	.
.	16ee\JJ	.
=68	=68	=68
8C\L	8cc\L	.
8c 8G 8En 8C\	16cc\L	.
.	16dd\JJ	.
8C\	16cc/LL	.
.	16bn/	.
8GJ 8F 8C\	16g/	.
.	16b/JJ	.
=69	=69	=69
8C/L	16cc/LL	.
.	16g/	.
8G 8En 8GG/	16en/	.
.	16g/JJ	.
8G 8E 8C/	16cc\LL	.
.	16dd\	.
8GJ 8E 8GG/	16een\	.
.	16ff\JJ	.
!!LO:LB:g=original
=70	=70	=70
8C\L	4gg\	.
8c 8G 8E-X 8C\	.	.
.	(8qgg/	.
8C\	16ff\LL)	.
.	16een\	.
8cJ 8A-X 8F 8C\	16ff\	.
.	16aa-X\JJ	.
=71	=71	=71
8C\L	8gg\L	.
8c 8G 8E- 8C\	8ee-X\J	.
.	(8qee-/	.
8C\	16dd\LL)	.
.	16cc\	.
8BnJ 8G 8F 8C\	16dd\	.
.	16ee-\JJ	.
=72	=72	=72
8GL 8E- 8C\	8cc\L	.
8An 8E- 8AAn\	16cc\L	.
.	16bn\JJ	.
8A 8F#X 8D\	16a-/LL	.
.	16cc/	.
8cJ 8F# 8D\	16b/	.
.	16a-/JJ	.
=73	=73	=73
*>D1	*>D1	*
8Bn 8G\	8g/	.
!LO:TUP:a:problem:klamra łukowa	!LO:TUP:b:problem:klamra łukowa	!
24G\LL	24g/LL	f
24G\	24g/	.
24G\JJ	24g/JJ	.
8G\L	8g/L	.
8G#X\J	8g#X/J	.
=74:|!	=74:|!	=74:|!
*>D2	*>D2	*
8Bn 8G\	8g/	.
*	*Xtuplet	*
8r	24g/LL	.
.	24g/	.
.	24g/JJ	.
4r	8g/L	.
.	8g/J	.
!!LO:LB:g=original
=75	=75	=75
*>E	*>E	*
8E-L 8EE-\	16b-XLL 16g\	ff
.	16gg\J	.
8e-J 8B- 8G\	8ggJ 8b-\	.
8BB-L 8BBB-\	8.ggL 8.b-\	.
8dJ 8B- 8A-\	.	.
.	16ffJk 16a-\	.
=76	=76	=76
8E- 8EE-/	8ffL 8a-\	.
16e-LL 16B- 16G\	8ee-J 8g\	.
16e-JJ 16B- 16G\	.	.
.	8qff/	.
8e-L 8B- 8G\	16ee-\LL	.
.	16dd\J	.
8e-J 8B- 8G\	8ee-\J	.
=77	=77	=77
8FL 8FF\	16ffLL 16dd 16b-\	.
.	16bb-\J	.
8dJ 8B- 8F\	8bb-J 8dd 8b-\	.
8FL 8FF\	8aanL 8cc\	.
8fJ 8e- 8An\	8cccJ 8ee-\	.
=78	=78	=78
8BB- 8BBB-/	8bb-L 8dd\	.
16dLL 16B- 16A-X\	16bb-\L	.
16dJJ 16B- 16A-\	16ccc\JJ	.
8dL 8B- 8A-\	16bb-\LL	.
.	16aa-X\	.
8dJ 8B- 8A-\	16ff\	.
.	16dd\JJ	.
!!LO:LB:g=original
=79	=79	=79
8E-L 8EE-\	16b-LL 16g\	.
.	16gg\J	.
8e-J 8B- 8G\	8ggJ 8b-\	.
8BB-L 8BBB-\	8.ggL 8.b-\	.
8dJ 8B- 8A-\	.	.
.	16ffJk 16a-\	.
=80	=80	=80
8E- 8EE-/	8ffL 8a-\	.
16e-LL 16B- 16G\	8ee-J 8g\	.
16e-JJ 16B- 16G\	.	.
.	8qff/	.
8e-L 8B- 8G\	16ee-\LL	.
.	16dd\J	.
8e-J 8B- 8G\	8ee-\J	.
=81	=81	=81
8A-L 8AA-/	16cc\LL	.
.	16ff\	.
8FJ 8FF/	16aa-\	.
.	16ccc\JJ	.
8B-L 8BB-\	8bb-L 8gg 8b-\	.
16cL 16B-\	16aanL 16ff#X 16an\	.
16cJJ 16B-\	16aaJJ 16ff# 16a\	.
=82	=82	=82
8dL 8B-\	8aa-XL 8ffn 8a-X\	.
16e-L 16B-\	16ggL 16ee- 16g\	.
16e-JJ 16B-\	16ggJJ 16ee- 16g\	.
8B-\L	8ffL 8ee- 8b- 8f\	.
8B-J 8F 8D 8BB-^\	8bb-J 8ff 8dd 8b-^\	.
!!LO:PB:g=original
!!LO:TX:t=P:problem:jedna fermata zapisana u dołu kreski
=83||;	=83||;	=83||;
!!LO:TX:B:a:t=Più mosso.
!!LO:TX:B:a:t=CODA.
8B-L 8E-\	16b-LL 16g\	p
.	16gg\J	.
8B- 8BB-\	8ggJ 8b-\	.
8B- 8C\	8.ggL 8.b-^\	.
8B-J 8D\	.	.
.	16ffJk 16a-\	.
=84	=84	=84
8B-L 8E-\	8ee-L 8g\	.
8B- 8BB-\	16gg\L	.
.	[<16b-\JJ	.
8B- 8C\	8.ggL 8.b-^\]	.
8B-J 8D\	.	.
.	16ffJk 16a-\	.
=85	=85	=85
8B-L 8E-\	8ee-L 8g\	.
8B- 8BB-\	16gg\L	.
.	[<16b-\JJ	.
8B- 8C\	8ggL 8b-\]	.
8B-J 8D\	8ffJ 8a-\	.
=86	=86	=86
8B-L 8E-\	8ee-L 8g\	.
8G 8GG\	16ee-\L	.
.	[<16g\JJ	.
8G 8AAn\	8ee-L 8g\]	.
8GJ 8BBn\	8ddJ 8f\	.
!!LO:LB:g=original
=87	=87	=87
8GL 8C/	8ccL 8e-/	.
8G 8GG/	16ee-/L	.
.	16g/JJ	.
8G 8AAn/	8.ee-L 8.g^/	.
8GJ 8BBn/	.	.
.	16ddJk 16f/	.
=88	=88	=88
8GL 8C/	8ccL 8e-/	.
8G 8GG/	16ee-/L	.
.	[16g/JJ	.
8G 8AAn/	8.ee-L 8.g/]	.
8GJ 8BBn/	.	.
.	16ddJk 16f/	.
=89	=89	=89
8GL 8C/	8ccL 8e-/	.
8G 8GG/	16ee-/L	.
.	[16g/JJ	.
8G 8AAn/	8ee-L 8g/]	.
8GJ 8BBn/	8ddJ 8f/	.
=90	=90	=90
8GL 8C/	8ccL 8e-/	.
8G 8GG/	16cc/L	.
.	[16e-/JJ	.
8A- 8AA-/	8ccL 8f 8e-/]	.
8AnJ 8AAn/	8cc-XJ 8g-X 8e-/	.
!!LO:LB:g=original
=91	=91	=91
8B-L 8BB-\	8b-L 8a-X 8f 8d/	fp
8d 8B- 8A-X\	16an/L	.
.	16b-/JJ	.
8d 8B- 8A-\	16cc/LL	.
.	16b-/	.
8dJ 8B- 8A-\	16a/	.
.	16b-/JJ	.
=92	=92	=92
8B-L 8BB-\	8b-L 8g 8e-/	fp
8e- 8B- 8G\	16an/L	.
.	16b-/JJ	.
8e- 8B- 8G\	16cc/LL	.
.	16b-/	.
8e-J 8B- 8G\	16a/	.
.	16b-/JJ	.
=93	=93	=93
8B-L 8BB-\	8b-L 8a-X 8f 8d/	.
.	16qqcc/LL	.
.	16qqb-/JJ	.
8d 8B- 8A-X\	16an/L	.
.	16b-/JJ	.
8d 8B- 8A-\	16cc\LL	.
.	16dd\	.
8dJ 8B- 8A-\	16ee-\	.
.	16ff\JJ	.
=94	=94	=94
8B-L 8BB-\	16gg\LL	.
.	16bb-\	.
8e- 8B- 8G\	16aa-\	.
.	16gg\JJ	.
8e- 8B- 8G\	16ff\LL	.
.	16ee-\	.
8e-J 8B- 8G\	16dd\	.
.	16cc\JJ	.
!!LO:LB:g=original
=95	=95	=95
8B-L 8BB-\	8b-L 8a- 8f 8d/	sfp
8d 8B- 8A-X\	16an/L	.
.	16b-/JJ	.
8d 8B- 8A-\	16cc/LL	.
.	16b-/	.
8dJ 8B- 8A-\	16a/	.
.	16b-/JJ	.
=96	=96	=96
8B-L 8BB-\	8b-L 8g 8e-/	sf
8e- 8B- 8G\	16an/L	.
.	16b-/JJ	.
8e- 8B- 8G\	16cc/LL	.
.	16b-/	.
8e-J 8B- 8G\	16a/	.
.	16b-/JJ	.
=97	=97	=97
8B-L 8BB-\	8b-L 8a- 8f 8d/	.
.	16qqcc/LL	.
.	16qqb-/JJ	.
8d 8B- 8A-X\	16an/L	.
.	16b-/JJ	.
8d 8B- 8A-\	16cc\LL	.
.	16dd\	.
8dJ 8B- 8A-\	16ee-\	.
.	16ff\JJ	.
=98	=98	=98
8B-L 8BB-\	16gg\LL	.
.	16bb-\	.
8e- 8B- 8G\	16aa-\	.
.	16gg\JJ	.
8e- 8B- 8G\	16ff\LL	.
.	16ee-\	.
8e-J 8B- 8G\	16dd\	.
.	16cc\JJ	.
!!LO:LB:g=original
=99	=99	=99
8B- 8BB-\	8b- 8f 8d/	.
8B-L 8BB-\	16r	f
.	16bb- 16b-\	.
8An 8AAn\	16r	.
.	16aan 16an\	.
8B-J 8BB-\	16r	.
.	16bb- 16b-\	.
=100	=100	=100
8BnL 8BBn\	16r	.
.	16bbn 16bn\	.
8c 8C\	16r	.
.	16ccc 16cc\	.
8B 8BB\	16r	.
.	16bb 16b\	.
8cJ 8C\	16r	.
.	16ccc 16cc\	.
=101	=101	=101
8c#XL 8C#X\	16r	.
.	16ccc#X 16cc#X\	.
8d 8D\	16r	.
.	16ddd 16dd\	.
8c# 8C#\	16r	.
.	16ccc# 16cc#\	.
8dJ 8D\	16r	.
.	16ddd 16dd\	.
=102	=102	=102
8e-L 8E-\	16r	.
!	!LO:N:vis=8	!
.	16eee-LL 16ee-\	.
8en 8En\	16r	.
!	!LO:N:vis=8	!
.	16eeen 16een\	.
8f 8F\	16r	.
!	!LO:N:vis=8	!
.	16fff 16ff\	.
8B-J 8BB-\	16r	.
!	!LO:N:vis=8	!
.	16fff#XJJ 16ddd 16aa- 16ff#X\	.
!!LO:PB:g=original
=103	=103	=103
8E-L 8EE-/	8gggL 8eee- 8bb- 8gg\	ff
8F 8FF/	16fff\L	.
.	16eee-\JJ	.
8GJ 8GG/	16eee-\LL	.
.	16ddd\	.
8r	16fff\	.
.	16eee-\JJ	.
=104	=104	=104
8A-L 8AA-\	8eee-L 8ccc 8aa- 8ee-\	.
8B- 8BB-\	16ddd\L	.
.	16ccc\JJ	.
8cJ 8C\	16ccc\LL	.
.	16bbn\	.
8r	16ddd\	.
.	16ccc\JJ	.
=105	=105	=105
8B-L 8BB-\	8bb-XL 8gg 8ee- 8b-\	.
8e- 8B- 8G\	16aan\L	.
.	16bb-\JJ	.
8e- 8B- 8G\	16ccc\LL	.
.	16bb-\	.
8e-J 8B- 8G\	16aa-X\	.
.	16gg\JJ	.
=106	=106	=106
8B-L 8BB-\	16ff\LL	.
.	16gg\	.
8d 8B- 8A-\	16aa-\	.
.	16bb-\JJ	.
8d 8B- 8A-\	16ccc\LL	.
.	16ddd\	.
8dJ 8B- 8A-\	16eee-\	.
.	16fff\JJ	.
!!LO:LB:g=original
=107	=107	=107
8E-L 8EE-/	8gggL 8eee- 8bb- 8gg\	.
8F 8FF/	16fff\L	.
.	16eee-\JJ	.
8GJ 8GG/	16eee-\LL	.
.	16ddd\	.
8r	16fff\	.
.	16eee-\JJ	.
=108	=108	=108
8A-L 8AA-\	8eee-L 8ccc 8aa- 8ee-\	.
8B- 8BB-\	16ddd\L	.
.	16ccc\JJ	.
8cJ 8C\	16ccc\LL	.
.	16bbn\	.
8r	16ddd\	.
.	16ccc\JJ	.
=109	=109	=109
8B-L 8G 8E- 8BB-/	16bb-X\LL	.
.	16ccc\	.
8B- 8BB-/	16ddd\	.
.	16eee-\JJ	.
8G 8GG/	16fff\LL	.
.	16eee-\	.
8E-J 8EE-/	16ddd\	.
.	16eee-\JJ	.
=110	=110	=110
8BB- 8BBB-/	8fff\L	.
16FLL 16D 16BB-\	16ff\L	.
16A-\JJ	16gg\JJ	.
8FL 8D 8BB-\	16aa-\LL	.
.	16bb-\	.
8A-J 8F 8D 8BB-\	16ccc\	.
.	16ddd\JJ	.
!!LO:LB:g=original
=111	=111	=111
8E-L 8EE-/	8eee- 8bb- 8gg 8ee-\	ff
8G 8GG/	8r	.
8B- 8BB-/	8eee-L 8bb- 8gg 8ee-\	.
8GJ 8GG/	16eee-L 16bb- 16gg\	.
.	16ee-\JJ	.
=112	=112	=112
8E-L 8EE-/	8eee-L 8bb- 8gg\	.
8BB- 8BBB-/	8ggg 8gg\	.
8E- 8EE-/	8eee- 8ee-\	.
8E-J 8EE-/	8cccJ 8cc\	.
=113	=113	=113
8E-L 8EE-/	16bb-LL 16b-\	.
.	16gg\	.
8G 8GG/	16ee-\	.
.	16gg\JJ	.
8B- 8BB-/	8bb-L 8b-\	.
8GJ 8GG/	16bb-L 16gg 16ee-\	.
.	16b-\JJ	.
=114	=114	=114
8E-L 8EE-/	8bb-L 8gg 8ee-\	.
8BB- 8BBB-/	8eee- 8ee-\	.
8E- 8EE-/	8bb- 8b-\	.
8E-J 8EE-/	8ggJ 8g\	.
!!LO:LB:g=original
=115	=115	=115
8E-L 8EE-/	8ee-L 8e-/	.
8G 8GG/	16g/L	.
.	16gg/JJ	.
8E- 8EE-/	8ee-L 8e-\	.
8B-J 8BB-/	16b-\L	.
.	16bb-\JJ	.
=116	=116	=116
8GL 8GG\	8ggL 8g\	.
8e- 8E-\	16ee-\L	.
.	16eee-\JJ	.
8B- 8BB-\	8bb-L 8b-\	.
8GJ 8GG\	8gggJ 8gg\	.
=117	=117	=117
8E- 8EE-/	8eee- 8ee-\	.
8r	8r	.
8E- 8BB- 8GG 8EE-/	8eee- 8bb- 8gg 8ee-\	.
8r	8r	.
=118	=118	=118
8E- 8BB- 8GG 8EE-/	8eee- 8bb- 8gg 8ee-\	.
8r	8r	.
8E- 8BB- 8GG 8EE-/	8eee- 8bb- 8gg 8ee-\	.
8r	8r	.
=119	=119	=119
4E- 4BB- 4GG 4EE-/	4eee- 4bb- 4gg 4ee-\	.
8r	8r	.
16E-\LL	16ee-\LL	.
16e-\JJ	16eee-\JJ	.
!!LO:LB:g=original
=120	=120	=120
8gL 8G\	8gggL 8gg\	.
8e- 8E-\	8eee- 8ee-\	.
8B- 8BB-\	8bb- 8b-\	.
8GJ 8GG\	8ggJ 8g\	.
=121	=121	=121
*tremolo	*	*
16EE-/LL	4ee- 4e-/	.
16E-/	.	.
16EE-/	.	.
16E-/	.	.
16EE-/	8.r	.
16E-/	.	.
16EE-/	.	.
16E-/JJ	16eee- 16bb- 16gg 16ee-\	.
=122	=122	=122
16EE-/LL	4eee- 4bb- 4gg 4ee-\	.
16E-/	.	.
16EE-/	.	.
16E-/	.	.
16EE-/	8.r	.
16E-/	.	.
16EE-/	.	.
16E-/JJ	16e- 16B- 16G/	.
=123	=123	=123
16EE-/LL	4e- 4B- 4G/	.
16E-/	.	.
16EE-/	.	.
16E-/	.	.
16EE-/	8.r	.
16E-/	.	.
16EE-/	.	.
16E-/JJ	16gg 16ee- 16b- 16g\	.
=124	=124	=124
16EE-/LL	4gg 4ee- 4b- 4g\	.
16E-/	.	.
16EE-/	.	.
16E-/	.	.
16EE-/	8r	.
16E-/	.	.
16EE-/	16e-/LL	.
16E-/JJ	16e-/JJ	.
*Xtremolo	*	*
=125	=125	=125
2E- 2EE-;</	2e-;/	.
==	==	==
*-	*-	*-
!!!system-decoration: {(p1)}
!!!ENC: Berenika Jozajtis
!!!END: 2022-08-21
!!!ENC: Kamil Watkowski
!!!END: 2022-09-28
!!!RDF**kern: > = above
!!!RDF**kern: < = below
!!!YEC: Copyright 2022 Narodowy Instytut Fryderyka Chopina (https://polishscores.org)
!!!YEM: License CC-BY-4.0 (https://creativecommons.org/licenses/by/4.0)
